firefox/firefox-symbolic.svg

<?xml version="1.0" encoding="UTF-8" standalone="no"?>
<svg
   xmlns:dc="http://purl.org/dc/elements/1.1/"
   xmlns:cc="http://creativecommons.org/ns#"
   xmlns:rdf="http://www.w3.org/1999/02/22-rdf-syntax-ns#"
   xmlns:svg="http://www.w3.org/2000/svg"
   xmlns="http://www.w3.org/2000/svg"
   xmlns:sodipodi="http://sodipodi.sourceforge.net/DTD/sodipodi-0.dtd"
   xmlns:inkscape="http://www.inkscape.org/namespaces/inkscape"
   width="16"
   height="16"
   viewBox="0 0 16 16"
   version="1.1"
   id="svg3758"
   sodipodi:docname="firefox-symbolic-quantum.svg"
   inkscape:version="0.92.2 5c3e80d, 2017-08-06">
  <metadata
     id="metadata3764">
    <rdf:RDF>
      <cc:Work
         rdf:about="">
        <dc:format>image/svg+xml</dc:format>
        <dc:type
           rdf:resource="http://purl.org/dc/dcmitype/StillImage" />
        <dc:title>Gnome Symbolic Icon Theme</dc:title>
      </cc:Work>
    </rdf:RDF>
  </metadata>
  <defs
     id="defs3762" />
  <sodipodi:namedview
     pagecolor="#555753"
     bordercolor="#666666"
     borderopacity="1"
     objecttolerance="10"
     gridtolerance="10"
     guidetolerance="10"
     inkscape:pageopacity="1"
     inkscape:pageshadow="2"
     inkscape:window-width="1591"
     inkscape:window-height="909"
     id="namedview3760"
     showgrid="false"
     showborder="false"
     inkscape:snap-global="false"
     inkscape:zoom="1"
     inkscape:cx="3.8851213"
     inkscape:cy="12.517918"
     inkscape:window-x="143"
     inkscape:window-y="60"
     inkscape:window-maximized="0"
     inkscape:current-layer="svg3758">
    <inkscape:grid
       type="xygrid"
       id="grid3768" />
  </sodipodi:namedview>
  <title
     id="title3754">Gnome Symbolic Icon Theme</title>
  <path
     d="m 15.054715,6.9884649 v 0 c -0.02034,-0.133652 -0.04071,-0.2122775 -0.04071,-0.2122775 0,0 -0.05225,0.060583 -0.138743,0.1748124 A 4.9808937,4.9808937 0 0 0 14.703694,6.0103229 6.4034781,6.4034781 0 0 0 14.270352,4.895288 4.6469845,4.6469845 0 0 0 13.87447,4.2163686 Q 13.793063,4.0947376 13.708437,3.9805045 C 13.444828,3.5499376 13.142365,3.2867867 12.792269,2.7891599 A 3.6101075,3.6101075 0 0 1 12.333953,1.5474054 5.0151173,5.0151173 0 0 0 12.113814,2.3599798 C 11.754468,1.997397 11.441832,1.7397963 11.253142,1.5640539 10.322171,0.69459485 10.430396,0.24367816 10.430396,0.24367816 v 0 c 0,0 -1.7389294,1.94102274 -0.9855522,3.96297904 a 3.8848199,3.8848199 0 0 0 1.2949452,1.726432 c 0.728868,0.6012222 1.513693,1.0743371 1.927612,2.2832561 A 3.8741829,3.8741829 0 0 0 11.21337,6.6823034 3.5023502,3.5023502 0 0 1 11.490854,8.0697401 3.2946971,3.2946971 0 0 1 7.4621982,11.27934 3.0343219,3.0343219 0 0 1 6.6459244,11.001852 3.3219834,3.3219834 0 0 1 5.667782,10.09771 l -0.00463,-0.0078 0.058274,0.02125 a 3.0061106,3.0061106 0 0 0 0.4162344,0.111409 2.6028293,2.6028293 0 0 0 1.6570605,-0.195631 C 8.3154732,9.7379218 8.6308831,9.5237932 8.8866339,9.6084266 h 0.0046 c 0.24974,0.079514 0.446755,-0.1628244 0.2682391,-0.4162632 A 1.3596868,1.3596868 0 0 0 7.8423564,8.6778985 C 7.3211426,8.7537416 6.8434027,9.1241907 6.1603222,8.7653097 a 1.4470953,1.4470953 0 0 1 -0.128107,-0.075371 c -0.04625,-0.026369 0.146605,0.040234 0.1017455,0.010233 A 3.3899676,3.3899676 0 0 1 5.7047808,8.4439577 c -0.010172,-0.00822 0.103133,0.032367 0.092497,0.024039 A 1.6561356,1.6561356 0 0 1 5.3495968,8.015168 0.80517516,0.80517516 0 0 1 5.3190728,7.2964766 0.63405807,0.63405807 0 0 1 5.5965603,7.0356384 c 0.088333,0.043485 0.1429059,0.076305 0.1429059,0.076305 0,0 -0.040235,-0.073997 -0.061972,-0.1128365 0.00786,-0.0027 0.014794,0 0.022662,-0.00513 0.077233,0.033293 0.248351,0.1202544 0.3385341,0.1734358 A 0.46987818,0.46987818 0 0 1 6.19362,7.3061637 c 0,0 0.030994,-0.015351 0.0079,-0.079998 A 0.41623066,0.41623066 0 0 0 6.0414753,7.0300927 h 0.0074 a 1.3596868,1.3596868 0 0 1 0.1970213,0.1225561 0.96149289,0.96149289 0 0 0 0.078625,-0.416232 0.54479973,0.54479973 0 0 0 -0.031914,-0.2312396 c -0.024511,-0.046254 0.013876,-0.064746 0.056885,-0.016135 A 0.45137905,0.45137905 0 0 0 6.3129456,6.378979 v -0.00372 0 c 0,0 0.024511,-0.031916 0.035615,-0.043486 A 0.66134433,0.66134433 0 0 1 6.4484481,6.2503678 4.6122987,4.6122987 0 0 1 7.1259793,5.9048971 C 7.3174429,5.8211545 7.4760733,5.7573477 7.5084475,5.7388339 a 1.0637007,1.0637007 0 0 0 0.1355052,-0.1040612 0.91015778,0.91015778 0 0 0 0.3052354,-0.5272274 0.73996569,0.73996569 0 0 0 0.0079,-0.082324 v -0.023118 -0.013967 0 -0.00552 0 -0.00611 0 C 7.9293085,4.872475 7.749868,4.7943251 6.8119611,4.7064478 A 0.81997449,0.81997449 0 0 1 6.1413599,4.0776254 v 0.0042 c -0.013416,0.034225 -0.025431,0.068909 -0.037456,0.1040572 0.012025,-0.034685 0.024051,-0.069373 0.037456,-0.1040572 v -0.00742 A 2.3762148,2.3762148 0 0 1 7.0598423,2.9339361 c 0.024051,-0.019416 -0.096192,0.00512 -0.072152,-0.014798 A 2.3845397,2.3845397 0 0 1 7.2328039,2.8155414 C 7.2748921,2.7979724 7.0524371,2.7128704 6.8558842,2.7336774 a 1.0174527,1.0174527 0 0 0 -0.3496338,0.082324 c 0.046253,-0.039773 0.1849968,-0.092498 0.1521605,-0.092498 a 2.2499581,2.2499581 0 0 0 -0.713142,0.2696255 0.14521828,0.14521828 0 0 1 0.01387,-0.064747 1.1099484,1.1099484 0 0 0 -0.4458297,0.3440843 0.58966016,0.58966016 0 0 0 0.00462,-0.080469 1.3300881,1.3300881 0 0 0 -0.2187525,0.2053404 l -0.00417,0.00321 A 2.9066776,2.9066776 0 0 0 3.6684873,3.2618132 l -0.00463,-0.0042 h 0.00554 A 1.3610743,1.3610743 0 0 1 3.3803631,2.9339159 l -0.0074,0.0018 -0.00877,-0.010174 C 3.3285694,2.8728322 3.2920343,2.813172 3.2545731,2.7465739 3.2277502,2.7003291 3.2004619,2.646216 3.1731756,2.5902563 c 0,-0.00372 -0.00416,-0.00513 -0.006,-0.00552 -0.0111,0 -0.01896,0.05133 -0.028212,0.037927 v -0.0028 A 1.9923577,1.9923577 0 0 1 3.0080744,1.8396896 l -0.0074,0.00372 A 0.87130958,0.87130958 0 0 0 2.6704677,2.2753541 c -0.028212,0.063362 -0.046248,0.098047 -0.064746,0.1327329 0,0.0028 0,-0.00461 0,-0.016194 0.00416,-0.031916 0.018037,-0.097585 0.014799,-0.092497 -0.00323,0.00513 -0.00553,0.00882 -0.00877,0.013415 A 0.80147532,0.80147532 0 0 0 2.4956586,2.4848515 1.0891367,1.0891367 0 0 0 2.4262868,2.661518 c -0.00276,0.00973 0,-0.00832 0,-0.029599 0,-0.02127 0.00416,-0.059199 0,-0.051331 L 2.4161148,2.600475 A 4.3935464,4.3935464 0 0 0 2.0461275,4.0040946 1.3976101,1.3976101 0 0 0 2.031791,4.252909 v 0.00742 A 3.0653076,3.0653076 0 0 0 1.6539417,4.7690529 7.2174403,7.2174403 0 0 0 0.85524217,6.725337 4.7871157,4.7871157 0 0 1 1.2830334,5.9756593 6.9371784,6.9371784 0 0 0 0.79974461,8.5192901 6.582457,6.582457 0 0 1 1.0078598,7.7659142 6.3854411,6.3854411 0 0 0 1.585032,10.755373 6.9542899,6.9542899 0 0 0 4.3372422,13.87618 v 0 a 6.0196208,6.0196208 0 0 0 1.6038754,0.768639 c 0.07492,0.02728 0.1507676,0.0541 0.2284646,0.08 -0.024511,-0.0096 -0.04625,-0.02034 -0.070761,-0.03098 A 7.2609132,7.2609132 0 0 0 8.179966,15 c 2.494615,0 3.318287,-0.949928 3.394136,-1.044738 v 0 A 1.2625664,1.2625664 0 0 0 11.8687,13.559386 v 0 q 0.07216,-0.02958 0.145679,-0.06335 l 0.03097,-0.01397 0.05597,-0.02635 a 5.2315572,5.2315572 0 0 0 1.053064,-0.659489 2.5436321,2.5436321 0 0 0 0.98184,-1.433687 v 0 a 0.89628343,0.89628343 0 0 0 0.01343,-0.660421 q 0.03838,-0.0606 0.0791,-0.129501 A 5.8762526,5.8762526 0 0 0 15.1107,7.7140393 v -0.0027 c 0,-0.027291 0,-0.054583 0,-0.081863 A 3.5754215,3.5754215 0 0 0 15.05473,6.9884887 Z"
     id="path3756"
     inkscape:connector-curvature="0"
     style="fill:#bebebe;fill-opacity:1;stroke-width:0.46247858" />
</svg>

<svg height="16" viewBox="0 0 16 16" width="16" xmlns="http://www.w3.org/2000/svg"><path d="m15.055 6.988a2 2 0 0 0 -.041-.212s-.052.06-.139.175a5 5 0 0 0 -.171-.94 6.4 6.4 0 0 0 -.434-1.116 5 5 0 0 0 -.396-.679q-.08-.121-.166-.235c-.263-.431-.566-.694-.916-1.192a3.6 3.6 0 0 1 -.458-1.242 5 5 0 0 0 -.22.813c-.36-.363-.672-.62-.86-.796-.932-.87-.824-1.32-.824-1.32s-1.739 1.94-.985 3.963a3.9 3.9 0 0 0 1.295 1.726c.729.601 1.513 1.074 1.927 2.283a3.87 3.87 0 0 0 -1.454-1.534 3.5 3.5 0 0 1 .278 1.388 3.295 3.295 0 0 1 -4.029 3.21 3 3 0 0 1 -.816-.278 3.3 3.3 0 0 1 -.978-.904l-.005-.008.058.021a3 3 0 0 0 .417.112 2.6 2.6 0 0 0 1.657-.196c.52-.29.836-.503 1.092-.419h.004c.25.08.447-.162.268-.416a1.36 1.36 0 0 0 -1.317-.514c-.52.076-.999.446-1.682.087a2 2 0 0 1 -.128-.075c-.046-.026.147.04.102.01a3.4 3.4 0 0 1 -.43-.256c-.01-.008.104.032.093.024a1.7 1.7 0 0 1 -.447-.453.8.8 0 0 1 -.03-.719.63.63 0 0 1 .277-.26c.088.043.142.076.142.076l-.062-.113c.008-.003.015 0 .023-.005.077.033.249.12.339.173a.5.5 0 0 1 .155.14s.03-.016.008-.08a.4.4 0 0 0 -.16-.197h.007a1.4 1.4 0 0 1 .197.123 1 1 0 0 0 .079-.417.55.55 0 0 0 -.032-.23c-.025-.047.013-.066.056-.017a.5.5 0 0 0 -.036-.11v-.004s.024-.032.036-.043a1 1 0 0 1 .1-.082 4.6 4.6 0 0 1 .677-.345c.191-.084.35-.148.382-.166a1 1 0 0 0 .136-.104.9.9 0 0 0 .305-.527l.008-.083v-.048c-.028-.105-.207-.183-1.145-.27a.82.82 0 0 1 -.67-.63v.005l-.038.104.037-.104v-.008a2.38 2.38 0 0 1 .919-1.14c.024-.02-.096.005-.072-.015a2 2 0 0 1 .245-.103c.042-.018-.18-.103-.377-.082a1 1 0 0 0 -.35.082c.047-.04.185-.092.152-.092a2.3 2.3 0 0 0 -.713.27.14.14 0 0 1 .014-.066 1.1 1.1 0 0 0 -.446.344l.005-.08a1.3 1.3 0 0 0 -.219.205l-.004.004a2.9 2.9 0 0 0 -1.627-.14l-.004-.003h.005a1.4 1.4 0 0 1 -.289-.324l-.007.002-.009-.01a3 3 0 0 1 -.19-.336q-.002-.005-.007-.005c-.01 0-.019.051-.028.038v-.003a2 2 0 0 1 -.13-.78l-.009.003a.87.87 0 0 0 -.33.432 2 2 0 0 1 -.065.133v-.016c.004-.032.018-.098.015-.093l-.01.014a.8.8 0 0 0 -.115.172 1 1 0 0 0 -.07.177c-.002.01 0-.009 0-.03s.004-.06 0-.051l-.01.02a4.4 4.4 0 0 0 -.37 1.403 1.4 1.4 0 0 0 -.014.249v.007a3 3 0 0 0 -.378.51 7.2 7.2 0 0 0 -.799 1.955 5 5 0 0 1 .428-.75 6.9 6.9 0 0 0 -.482 2.545 7 7 0 0 1 .208-.753 6.4 6.4 0 0 0 .577 2.99 6.95 6.95 0 0 0 2.752 3.12 6 6 0 0 0 1.604.769q.111.04.229.08l-.071-.031a7.3 7.3 0 0 0 2.081.305c2.495 0 3.318-.95 3.394-1.045a1.3 1.3 0 0 0 .295-.396q.072-.03.145-.063l.031-.014.056-.026a5.2 5.2 0 0 0 1.053-.66 2.54 2.54 0 0 0 .982-1.433.9.9 0 0 0 .014-.66l.079-.13a5.9 5.9 0 0 0 .882-2.859v-.085a3.6 3.6 0 0 0 -.056-.64" fill="#bebebe" stroke-width=".462479"/></svg>
